X:49
T:Coolfin
C:Donal Lunny
D:Coolfin
M:12/8
L:1/8
R:slide
K:G
A2D EFG ABc B2G|A2D EFG A2B G2E|A2D EFG ABc B2G|Acd A2d cAB GBG:|
A2d d2 e cdB cGB|A2d d2e gec dGB|A2d d2 e cdB cGB|ABc BdG AcB GEG|
A2d d2g edc BAG|A2d d2g ede a2g|e2a ged cag eAB|cdA Bcd cBA GBG|
A2d DEG ABG c2d|1DEG AGE c2A B2G|A2d DEG ABG c2d|
Acd edB c2A B2G:|2ABd edB ged edc|(4aged (4gedc (4edcA|dBc ABG AGE cGE||
